neru-dark-classic/22x22/actions/star-new-symbolic.svg

<?xml version="1.0" encoding="UTF-8" standalone="no"?>
<svg
   xmlns:dc="http://purl.org/dc/elements/1.1/"
   xmlns:cc="http://creativecommons.org/ns#"
   xmlns:rdf="http://www.w3.org/1999/02/22-rdf-syntax-ns#"
   xmlns:svg="http://www.w3.org/2000/svg"
   xmlns="http://www.w3.org/2000/svg"
   xmlns:sodipodi="http://sodipodi.sourceforge.net/DTD/sodipodi-0.dtd"
   xmlns:inkscape="http://www.inkscape.org/namespaces/inkscape"
   width="22"
   height="22"
   viewBox="0 0 22 22"
   version="1.1"
   id="svg7"
   sodipodi:docname="star-new-symbolic.svg"
   inkscape:version="0.92.1 r">
  <metadata
     id="metadata11">
    <rdf:RDF>
      <cc:Work
         rdf:about="">
        <dc:format>image/svg+xml</dc:format>
        <dc:type
           rdf:resource="http://purl.org/dc/dcmitype/StillImage" />
        <dc:title></dc:title>
      </cc:Work>
    </rdf:RDF>
  </metadata>
  <sodipodi:namedview
     pagecolor="#ffffff"
     bordercolor="#666666"
     borderopacity="1"
     objecttolerance="10"
     gridtolerance="10"
     guidetolerance="10"
     inkscape:pageopacity="0"
     inkscape:pageshadow="2"
     inkscape:window-width="769"
     inkscape:window-height="480"
     id="namedview9"
     showgrid="false"
     inkscape:zoom="10.727273"
     inkscape:cx="11"
     inkscape:cy="11"
     inkscape:window-x="0"
     inkscape:window-y="0"
     inkscape:window-maximized="0"
     inkscape:current-layer="svg7" />
  <defs
     id="defs3">
    <style
       type="text/css"
       id="current-color-scheme">
   .ColorScheme-Text { color:#d3dae3; } .ColorScheme-Highlight { color:#5294e2; }
  </style>
  </defs>
  <path
     style="fill:currentColor;opacity:1"
     class="ColorScheme-Text"
     transform="translate(3 3)"
     d="M 8 0.39257812 L 5.8828125 5.8867188 L 0 6.203125 L 4.5722656 9.9179688 L 3.0566406 15.609375 L 8 12.408203 L 8.9941406 13.052734 L 8.9941406 11 L 10.994141 11 L 10.994141 9 L 12.558594 9 L 16 6.203125 L 10.119141 5.8867188 L 8 0.39257812 z M 11.990234 10 L 11.990234 12 L 9.9902344 12 L 9.9902344 14 L 11.990234 14 L 11.990234 16 L 13.990234 16 L 13.990234 14 L 15.990234 14 L 15.990234 12 L 13.990234 12 L 13.990234 10 L 11.990234 10 z"
     id="path5" />
</svg>

<svg xmlns="http://www.w3.org/2000/svg" width="22" height="22" version="1.1" id="svg7"><defs id="defs3"><style type="text/css" id="current-color-scheme"></style></defs><path transform="translate(3 3)" d="M8 .393L5.883 5.887 0 6.203l4.572 3.715-1.515 5.691L8 12.41l.994.644V11h2V9h1.565L16 6.203l-5.88-.316L8 .393zM11.99 10v2h-2v2h2v2h2v-2h2v-2h-2v-2h-2z" id="path5" fill="currentColor" opacity="1" color="#d3dae3"/></svg>
